dist/svg/static/rotate-image-left-large.svg

<svg xmlns="http://www.w3.org/2000/svg" width="48" height="48" viewBox="0 0 48 48"><g fill="none" stroke="currentColor"><path d="M27.5 4.5l-5 5 5 5"/><path d="M43.5 28v-1.4c0-4.5-1.7-9-5-12.4-3.2-3.2-7.6-4.7-11.9-4.7h-4.1M5.5 22.5h24c1.7 0 3 1.3 3 3v16h-24c-1.7 0-3-1.3-3-3v-16z"/></g></svg>

<?xml version="1.0" encoding="UTF-8" standalone="no"?>
<svg width="48px" height="48px" viewBox="0 0 48 48" version="1.1" xmlns="http://www.w3.org/2000/svg" xmlns:xlink="http://www.w3.org/1999/xlink">
    <!-- Generator: sketchtool 46.2 (44496) - http://www.bohemiancoding.com/sketch -->
    <title>rotate-image-left-large</title>
    <desc>Created with sketchtool.</desc>
    <defs></defs>
    <g id="icons-published" stroke="none" stroke-width="1" fill="none" fill-rule="evenodd">
        <g id="briefing" transform="translate(-3168.000000, -1434.000000)"></g>
        <g id="rotate-image-left-large" stroke="#000000">
            <polyline id="Shape" points="27.5 4.5 22.5 9.5 27.5 14.5"></polyline>
            <path d="M5.5,22.5 L29.5,22.5 C31.2,22.5 32.5,23.8 32.5,25.5 L32.5,41.5 L8.5,41.5 C6.8,41.5 5.5,40.2 5.5,38.5 L5.5,22.5 Z" id="Shape"></path>
            <path d="M43.5,28 L43.5,26.6 C43.5,22.1 41.8,17.6 38.5,14.2 C35.3,11 30.9,9.5 26.6,9.5 L22.5,9.5" id="Path"></path>
        </g>
    </g>
</svg>
